public/icons/duh.svg

<svg width="90" height="91" viewBox="0 0 90 91" fill="none" xmlns="http://www.w3.org/2000/svg">
<circle cx="44.7684" cy="45.2391" r="44.7684" fill="white"/>
<path fill-rule="evenodd" clip-rule="evenodd" d="M44.0683 18.6572C54.5046 18.6572 62.9549 27.118 62.9549 37.5672V61.9747H25.1816V37.5672C25.1816 27.118 33.632 18.6572 44.0683 18.6572ZM36.5136 32.4986C34.3329 32.4986 32.5805 34.2531 32.5805 36.4365C32.5805 38.6199 34.3329 40.3745 36.5136 40.3745C38.6943 40.3745 40.4467 38.6199 40.4467 36.4365C40.4467 34.2531 38.6943 32.4986 36.5136 32.4986ZM50.4547 32.4986C48.274 32.4986 46.5216 34.2531 46.5216 36.4365C46.5216 38.6199 48.274 40.3745 50.4547 40.3745C52.6354 40.3745 54.3878 38.6199 54.3878 36.4365C54.3878 34.2531 52.6354 32.4986 50.4547 32.4986Z" fill="#FF5C3E"/>
<path fill-rule="evenodd" clip-rule="evenodd" d="M44.0683 21.1932C54.5046 21.1932 62.9549 27.7045 62.9549 44.1191V63.38H25.1816V37.218C25.1816 27.2366 33.632 21.1932 44.0683 21.1932ZM36.5136 32.5002C34.3329 32.5002 32.5805 34.2548 32.5805 36.4382C32.5805 38.6216 34.3329 40.3761 36.5136 40.3761C38.6943 40.3761 40.4467 38.6216 40.4467 36.4382C40.4467 34.2548 38.6943 32.5002 36.5136 32.5002ZM50.4547 32.5002C48.274 32.5002 46.5216 34.2548 46.5216 36.4382C46.5216 38.6216 48.274 40.3761 50.4547 40.3761C52.6354 40.3761 54.3878 38.6216 54.3878 36.4382C54.3878 34.2548 52.6354 32.5002 50.4547 32.5002Z" fill="#FF5C3E"/>
<path fill-rule="evenodd" clip-rule="evenodd" d="M44.067 23.0234C54.5033 23.0234 62.9536 29.3008 62.9536 45.1305V71.8384C62.9536 73.0471 61.9801 73.9829 60.8118 73.9829C59.6046 73.9829 58.67 73.0081 58.67 71.8384V65.834C58.67 64.7423 57.7354 63.8845 56.5672 63.8456H56.5283C55.36 63.8456 54.3865 64.7033 54.3865 65.795V68.4853C54.3865 69.616 53.4908 70.5128 52.3615 70.5128C51.2322 70.5128 50.3366 69.616 50.3366 68.4853V65.834C50.3366 64.7423 49.402 63.8845 48.2337 63.8456H48.1948C47.0265 63.8456 46.053 64.7033 46.053 65.795V66.3409C46.053 67.4716 45.1573 68.3684 44.028 68.3684C42.8987 68.3684 42.0031 67.4716 42.0031 66.3409V65.834C42.0031 64.7423 41.0685 63.8845 39.9002 63.8456H39.8613C38.693 63.8456 37.7195 64.7033 37.7195 65.795V68.4853C37.7195 69.616 36.8239 70.5128 35.6946 70.5128C34.5652 70.5128 33.6696 69.616 33.6696 68.4853V65.834C33.6696 64.7423 32.735 63.8845 31.5667 63.8456H31.5278C30.3596 63.8456 29.386 64.7033 29.386 65.795V65.834V71.9554C29.386 73.0861 28.4904 73.9829 27.3611 73.9829C26.2318 73.9829 25.3361 73.0861 25.3361 71.9554V38.5023C25.1803 28.8719 33.6307 23.0234 44.067 23.0234ZM36.5123 32.4979C34.3316 32.4979 32.5792 34.2524 32.5792 36.4359C32.5792 38.6193 34.3316 40.3738 36.5123 40.3738C38.693 40.3738 40.4454 38.6193 40.4454 36.4359C40.4454 34.2524 38.693 32.4979 36.5123 32.4979ZM50.4534 32.4979C48.2727 32.4979 46.5203 34.2524 46.5203 36.4359C46.5203 38.6193 48.2727 40.3738 50.4534 40.3738C52.6341 40.3738 54.3865 38.6193 54.3865 36.4359C54.3865 34.2524 52.6341 32.4979 50.4534 32.4979Z" fill="#FF5C3E"/>
<path opacity="0.2563" fill-rule="evenodd" clip-rule="evenodd" d="M27.2 41.9316C27.7452 41.9316 28.2125 42.3995 28.2125 42.9454V47.5072C28.2125 48.053 27.7452 48.5209 27.2 48.5209C26.6548 48.5209 26.1875 48.053 26.1875 47.5072V42.9454C26.1875 42.3995 26.6159 41.9316 27.2 41.9316Z" fill="#FF5C3E"/>
<path opacity="0.2563" fill-rule="evenodd" clip-rule="evenodd" d="M61.6707 48.5225C62.2159 48.5225 62.6832 48.9903 62.6832 49.5362V58.0748C62.6832 58.6207 62.2159 59.0886 61.6707 59.0886C61.1255 59.0886 60.6582 58.6207 60.6582 58.0748V49.5362C60.6582 48.9903 61.1255 48.5225 61.6707 48.5225Z" fill="#FF5C3E"/>
<path opacity="0.2563" fill-rule="evenodd" clip-rule="evenodd" d="M61.6707 44.1172C62.2159 44.1172 62.6832 44.5851 62.6832 45.1309V46.0667C62.6832 46.6126 62.2159 47.0805 61.6707 47.0805C61.1255 47.0805 60.6582 46.6126 60.6582 46.0667V45.1309C60.6582 44.5461 61.1255 44.1172 61.6707 44.1172Z" fill="#FF5C3E"/>
<path fill-rule="evenodd" clip-rule="evenodd" d="M44.1409 46.535C45.8543 46.535 47.1394 45.1314 47.1394 44.1567C47.1394 43.7668 46.9057 43.4159 46.5553 43.3769C46.0101 43.2989 45.1923 43.6108 44.1409 43.6108C43.1674 43.6108 42.5443 43.3379 41.8044 43.3379C41.0256 43.3379 41.0645 44.2347 41.1814 44.5856C41.4539 45.5603 42.3885 46.535 44.1409 46.535Z" fill="#FF5C3E"/>
<path fill-rule="evenodd" clip-rule="evenodd" d="M44.1798 45.7151C45.9322 45.7151 47.2173 44.4285 47.2173 43.4927C47.2173 43.1418 46.9836 42.8299 46.6331 42.7909C46.088 42.713 45.2313 43.0249 44.1798 43.0249C43.1674 43.0249 42.5832 42.752 41.8044 42.752C41.0256 42.752 41.0645 43.6097 41.1814 43.9216C41.4539 44.8183 42.4275 45.7151 44.1798 45.7151Z" fill="#FF5C3E"/>
<path fill-rule="evenodd" clip-rule="evenodd" d="M37.0981 31.8359C39.0841 31.8359 40.7197 33.8244 40.7197 36.2808C40.7197 38.7372 39.0841 40.7257 37.0981 40.7257C35.1121 40.7257 33.4766 38.7372 33.4766 36.2808C33.4766 33.8244 35.0732 31.8359 37.0981 31.8359ZM37.0981 32.3038C35.3068 32.3038 33.866 34.0974 33.866 36.2808C33.866 38.4642 35.3068 40.2578 37.0981 40.2578C38.8894 40.2578 40.3303 38.4642 40.3303 36.2808C40.3303 34.0974 38.8505 32.3038 37.0981 32.3038Z" fill="#FF5C3E"/>
<path fill-rule="evenodd" clip-rule="evenodd" d="M51.0786 31.8359C53.0646 31.8359 54.7002 33.8244 54.7002 36.2808C54.7002 38.7372 53.0646 40.7257 51.0786 40.7257C49.0926 40.7257 47.457 38.7372 47.457 36.2808C47.457 33.8244 49.0926 31.8359 51.0786 31.8359ZM51.0786 32.3038C49.2873 32.3038 47.8464 34.0974 47.8464 36.2808C47.8464 38.4642 49.2873 40.2578 51.0786 40.2578C52.8699 40.2578 54.3107 38.4642 54.3107 36.2808C54.3107 34.0974 52.8699 32.3038 51.0786 32.3038Z" fill="#FF5C3E"/>
<path fill-rule="evenodd" clip-rule="evenodd" d="M37.0915 32.3027C38.8828 32.3027 40.3237 34.0963 40.3237 36.2797C40.3237 36.3577 40.3237 36.4357 40.3237 36.5137V36.7476C40.3237 34.5252 38.9218 32.6926 37.1694 32.6926C35.417 32.6926 34.0151 34.4862 34.0151 36.7476C34.0151 37.1765 34.0541 37.6054 34.1709 37.9953C33.9762 37.4884 33.8594 36.9036 33.8594 36.3187C33.8594 34.0963 35.3002 32.3027 37.0915 32.3027Z" fill="#FF5C3E"/>
<path fill-rule="evenodd" clip-rule="evenodd" d="M51.0818 32.3027C52.8731 32.3027 54.3139 34.0963 54.3139 36.2797C54.3139 36.3577 54.3139 36.4357 54.3139 36.5137V36.7476C54.3139 34.5252 52.912 32.6926 51.1596 32.6926C49.4073 32.6926 48.0054 34.4862 48.0054 36.7476C48.0054 37.1765 48.0443 37.6054 48.1611 37.9953C47.9664 37.4884 47.8496 36.9036 47.8496 36.3187C47.8496 34.0963 49.2904 32.3027 51.0818 32.3027Z" fill="#FF5C3E"/>
</svg>

<svg width="90" height="91" fill="none" xmlns="http://www.w3.org/2000/svg"><circle cx="44.768" cy="45.239" r="44.768" fill="#fff"/><path fill-rule="evenodd" clip-rule="evenodd" d="M44.068 18.657c10.437 0 18.887 8.461 18.887 18.91v24.408H25.182V37.567c0-10.449 8.45-18.91 18.886-18.91ZM36.514 32.5a3.925 3.925 0 0 0-3.934 3.938 3.925 3.925 0 0 0 3.934 3.938 3.925 3.925 0 0 0 3.933-3.938 3.925 3.925 0 0 0-3.933-3.938Zm13.94 0a3.925 3.925 0 0 0-3.932 3.938 3.925 3.925 0 0 0 3.933 3.938 3.925 3.925 0 0 0 3.933-3.938 3.925 3.925 0 0 0-3.933-3.938Z" fill="#FF5C3E"/><path fill-rule="evenodd" clip-rule="evenodd" d="M44.068 21.193c10.437 0 18.887 6.511 18.887 22.926V63.38H25.182V37.218c0-9.981 8.45-16.025 18.886-16.025ZM36.514 32.5a3.925 3.925 0 0 0-3.934 3.938 3.925 3.925 0 0 0 3.934 3.938 3.925 3.925 0 0 0 3.933-3.938 3.925 3.925 0 0 0-3.933-3.938Zm13.94 0a3.925 3.925 0 0 0-3.932 3.938 3.925 3.925 0 0 0 3.933 3.938 3.925 3.925 0 0 0 3.933-3.938 3.925 3.925 0 0 0-3.933-3.938Z" fill="#FF5C3E"/><path fill-rule="evenodd" clip-rule="evenodd" d="M44.067 23.023c10.436 0 18.887 6.278 18.887 22.107v26.708a2.137 2.137 0 0 1-2.142 2.145 2.137 2.137 0 0 1-2.142-2.145v-6.004c0-1.092-.935-1.95-2.103-1.988h-.039c-1.168 0-2.142.857-2.142 1.949v2.69c0 1.131-.895 2.028-2.025 2.028a2.012 2.012 0 0 1-2.024-2.028v-2.651c0-1.092-.935-1.95-2.103-1.988h-.04c-1.168 0-2.141.857-2.141 1.949v.546c0 1.13-.896 2.027-2.025 2.027a2.012 2.012 0 0 1-2.025-2.027v-.507c0-1.092-.934-1.95-2.103-1.988h-.039c-1.168 0-2.142.857-2.142 1.949v2.69c0 1.131-.895 2.028-2.024 2.028a2.012 2.012 0 0 1-2.025-2.028v-2.651c0-1.092-.935-1.95-2.103-1.988h-.04c-1.167 0-2.141.857-2.141 1.949v6.16c0 1.131-.896 2.028-2.025 2.028a2.012 2.012 0 0 1-2.025-2.028V38.502c-.156-9.63 8.295-15.479 18.731-15.479Zm-7.555 9.475a3.925 3.925 0 0 0-3.933 3.938 3.925 3.925 0 0 0 3.933 3.938 3.925 3.925 0 0 0 3.933-3.938 3.925 3.925 0 0 0-3.933-3.938Zm13.941 0a3.925 3.925 0 0 0-3.933 3.938 3.925 3.925 0 0 0 3.933 3.938 3.925 3.925 0 0 0 3.933-3.938 3.925 3.925 0 0 0-3.933-3.938Z" fill="#FF5C3E"/><path opacity=".256" fill-rule="evenodd" clip-rule="evenodd" d="M27.2 41.932c.545 0 1.012.468 1.012 1.013v4.562c0 .546-.467 1.014-1.012 1.014a1.032 1.032 0 0 1-1.012-1.014v-4.562c0-.545.428-1.013 1.012-1.013ZM61.67 48.523c.546 0 1.013.467 1.013 1.013v8.539c0 .546-.467 1.014-1.012 1.014a1.032 1.032 0 0 1-1.013-1.014v-8.539c0-.546.468-1.014 1.013-1.014ZM61.67 44.117c.546 0 1.013.468 1.013 1.014v.936c0 .546-.467 1.014-1.012 1.014a1.032 1.032 0 0 1-1.013-1.014v-.936c0-.585.468-1.014 1.013-1.014Z" fill="#FF5C3E"/><path fill-rule="evenodd" clip-rule="evenodd" d="M44.14 46.535c1.714 0 3-1.404 3-2.378 0-.39-.234-.741-.585-.78-.545-.078-1.363.234-2.414.234-.974 0-1.597-.273-2.337-.273-.778 0-.74.897-.623 1.248.273.974 1.208 1.949 2.96 1.949Z" fill="#FF5C3E"/><path fill-rule="evenodd" clip-rule="evenodd" d="M44.18 45.715c1.752 0 3.037-1.287 3.037-2.222 0-.351-.233-.663-.584-.702-.545-.078-1.402.234-2.453.234-1.013 0-1.597-.273-2.376-.273-.778 0-.74.858-.623 1.17.273.896 1.247 1.793 2.999 1.793ZM37.098 31.836c1.986 0 3.622 1.988 3.622 4.445 0 2.456-1.636 4.445-3.622 4.445s-3.621-1.989-3.621-4.445c0-2.457 1.596-4.445 3.621-4.445Zm0 .468c-1.791 0-3.232 1.793-3.232 3.977 0 2.183 1.44 3.977 3.232 3.977 1.791 0 3.232-1.794 3.232-3.977 0-2.184-1.48-3.977-3.232-3.977ZM51.079 31.836c1.986 0 3.621 1.988 3.621 4.445 0 2.456-1.635 4.445-3.621 4.445s-3.622-1.989-3.622-4.445c0-2.457 1.636-4.445 3.622-4.445Zm0 .468c-1.792 0-3.233 1.793-3.233 3.977 0 2.183 1.441 3.977 3.233 3.977 1.79 0 3.232-1.794 3.232-3.977 0-2.184-1.441-3.977-3.232-3.977Z" fill="#FF5C3E"/><path fill-rule="evenodd" clip-rule="evenodd" d="M37.092 32.303c1.79 0 3.232 1.793 3.232 3.977v.468c0-2.223-1.402-4.055-3.155-4.055-1.752 0-3.154 1.793-3.154 4.055 0 .428.04.857.156 1.247a4.75 4.75 0 0 1-.312-1.676c0-2.223 1.441-4.016 3.233-4.016ZM51.082 32.303c1.791 0 3.232 1.793 3.232 3.977v.468c0-2.223-1.402-4.055-3.154-4.055-1.753 0-3.155 1.793-3.155 4.055 0 .428.04.857.156 1.247a4.75 4.75 0 0 1-.311-1.676c0-2.223 1.44-4.016 3.232-4.016Z" fill="#FF5C3E"/></svg>
